X:32
T: Cold Frosty Morning II
R: reel
M: 4/4
L: 1/8
K: Ador
|"Am"EDEG A2 AB|cAcd e2 DF|"G"G2BAG2GF|GABcd4|
"Am"EDEGA2AB|cAcde2AB|"Am"cBAc "G"BAG2|"Am"A4A4 :|
|:"Am"e2a2a4|abag edcd|"G"edef gagf|"G"edcd"E7"e4 |
"Am"A4"Am/G"c2c2|"F"dcd2"E7"e2AB|"Dm"cBAc "Em"BAG2|"Am"A4A4:|
